resources/haticons/SVG/coin-pound.svg

<!-- Generated by IcoMoon.io -->
<svg version="1.1" xmlns="http://www.w3.org/2000/svg" width="24" height="24" viewBox="0 0 24 24">
<title>coin-pound</title>
<path d="M11.25 1.5c-6.213 0-11.25 5.037-11.25 11.25s5.037 11.25 11.25 11.25c6.213 0 11.25-5.037 11.25-11.25s-5.037-11.25-11.25-11.25zM11.25 21.75c-4.971 0-9-4.029-9-9s4.029-9 9-9c4.97 0 9 4.029 9 9s-4.030 9-9 9z"></path>
<path d="M14.25 16.5h-5.25v-3h2.25c0.414 0 0.75-0.336 0.75-0.75s-0.336-0.75-0.75-0.75h-2.25v-0.75c0-1.241 1.009-2.25 2.25-2.25 0.801 0 1.548 0.431 1.95 1.126 0.207 0.359 0.666 0.481 1.025 0.274s0.481-0.666 0.274-1.025c-0.669-1.156-1.913-1.875-3.248-1.875-2.068 0-3.75 1.682-3.75 3.75v0.75h-0.75c-0.414 0-0.75 0.336-0.75 0.75s0.336 0.75 0.75 0.75h0.75v4.5h6.75c0.414 0 0.75-0.336 0.75-0.75s-0.336-0.75-0.75-0.75z"></path>
</svg>

<svg xmlns="http://www.w3.org/2000/svg" width="24" height="24"><path d="M11.25 1.5C5.037 1.5 0 6.537 0 12.75S5.037 24 11.25 24 22.5 18.963 22.5 12.75 17.463 1.5 11.25 1.5zm0 20.25c-4.971 0-9-4.029-9-9s4.029-9 9-9a9 9 0 0 1 0 18z"/><path d="M14.25 16.5H9v-3h2.25a.75.75 0 0 0 0-1.5H9v-.75a2.252 2.252 0 0 1 4.2-1.124.75.75 0 1 0 1.299-.751A3.764 3.764 0 0 0 11.251 7.5a3.754 3.754 0 0 0-3.75 3.75V12h-.75a.75.75 0 0 0 0 1.5h.75V18h6.75a.75.75 0 0 0 0-1.5z"/></svg>
